!!!!SEGMENT: pl-kk--kk-i-15--022_anonim--alleluia-prophetae-sancti.krn
!!!cenid: 16xx:1139
!!!COM: Anonim
!!!COM-rismID: pe30004985
!!!CDT:
!!!CNT:
!!!OTL: Alleluia Prophetae sancti
!!!PDT:
!!!AGN: Sacred
!!!SMS-siglum: PL-Kk
!!!SMS-shelfmark: Kk.I.15
!!!SMS-shelfwork: 022 W
!!!SMS-variant:
!!!SMS-altvar:
!!!NIFC-rismSourceID: 1001146379
!!!NIFC-rismChildID: 1001147859
!!!NIFC-islandoraID: pl-kk:2631
!!!URL-pdf-islandora: https://repozytorium.nifc.pl/islandora/object/pl-kk%3A2631/datastream/PDF/view
!!!URL-scan: https://polish.musicsources.pl/pl/lokalizacje/galeria/rekopisy/5777 @EN{Scan on Polish Music Sources Website} @PL{Skany w portalu Dziedzictwo Muzyki Polskiej w otwartym dostępie}
!!!ONB-nifc: UWAGA: C (skan 0014), A (skan 0031), T (skan 0048-0049), B (skan 0066). Następny utwór: Mittit ad virginem
!!!AIN: 1 alto 1 bass 1 soprn 1 tenor
!!!key:
**kern	**text	**text	**kern	**text	**text	**kern	**text	**text	**kern	**text	**text
*part4	*part4	*part4	*part3	*part3	*part3	*part2	*part2	*part2	*part1	*part1	*part1
*staff4	*staff4	*staff4	*staff3	*staff3	*staff3	*staff2	*staff2	*staff2	*staff1	*staff1	*staff1
*Ibass	*	*	*Itenor	*	*	*Ialto	*	*	*Isoprn	*	*
*I"Basso	*	*	*I"Tenore	*	*	*I"Alto	*	*	*I"Canto	*	*
*I'B.	*	*	*I'T.	*	*	*I'A.	*	*	*I'C.	*	*
*clefF4	*	*	*clefC4	*	*	*clefC4	*	*	*clefC3	*	*
*k[]	*	*	*k[]	*	*	*k[]	*	*	*k[]	*	*
*C:	*	*	*C:	*	*	*C:	*	*	*C:	*	*
*M2/1	*	*	*M2/1	*	*	*M2/1	*	*	*M2/1	*	*
*met(c|)	*	*	*met(c|)	*	*	*met(c|)	*	*	*met(c|)	*	*
=1	=1	=1	=1	=1	=1	=1	=1	=1	=1	=1	=1
*lig	*	*	*	*	*	*lig	*	*	*	*	*
1G\	Al-	.	1G/	Al-	.	1C/	Al-	.	1c\	Al-	.
1F\	-le-	.	1.d\	-le-	.	1D/	.	.	1A/	-le-	.
*Xlig	*	*	*	*	*	*Xlig	*	*	*	*	*
=2-	=2-	=2-	=2-	=2-	=2-	=2-	=2-	=2-	=2-	=2-	=2-
*	*	*	*	*	*	*lig	*	*	*	*	*
2D\	.	.	.	.	.	1D/	-le-	.	2A/	.	.
2.F\	.	.	4c\	.	.	.	.	.	2.d\	.	.
.	.	.	4B\	.	.	.	.	.	.	.	.
.	.	.	1A\	.	.	1F/	.	.	.	.	.
4E\	.	.	.	.	.	.	.	.	4e\	.	.
4D/	.	.	.	.	.	.	.	.	2.f\	.	.
4C/	.	.	.	.	.	.	.	.	.	.	.
*	*	*	*	*	*	*Xlig	*	*	*	*	*
=3-	=3-	=3-	=3-	=3-	=3-	=3-	=3-	=3-	=3-	=3-	=3-
*	*	*	*	*	*	*lig	*	*	*	*	*
!	!	!	!LO:LB:g=original	!	!	!	!	!	!	!	!
1D\	.	.	2.F/	.	.	1F/	-lu-	.	.	.	.
.	.	.	.	.	.	.	.	.	4e\	.	.
.	.	.	.	.	.	.	.	.	1d\	.	.
.	.	.	4G/	.	.	.	.	.	.	.	.
2.AA/	-lu-	.	4A\	.	.	1E/	.	.	.	.	.
.	.	.	4B\	.	.	.	.	.	.	.	.
.	.	.	1A\	.	.	.	.	.	2c/	-lu-	.
4C/	-ia	.	.	.	.	.	.	.	.	.	.
*	*	*	*	*	*	*Xlig	*	*	*	*	*
=4-	=4-	=4-	=4-	=4-	=4-	=4-	=4-	=4-	=4-	=4-	=4-
*	*	*	*	*	*	*lig	*	*	*	*	*
!	!	!	!	!	!	!	!	!	!LO:TX:t=P:problem=kreska pseudotaktowa	!	!
1BB/	.	.	.	.	.	1D/	-ia	.	1d\	-ia	.
.	.	.	2G/	.	.	.	.	.	.	.	.
*	*	*	*	*	*	*	*	*	*col	*	*
1AA/	.	.	1A\	-lu-	.	1E/	.	.	3c\	.	.
.	.	.	.	.	.	.	.	.	3d\	.	.
!	!	!	!	!	!	!	!	!	!LO:TX:t=P:problem=kreska pseudotaktowa	!	!
.	.	.	.	.	.	.	.	.	3e\	.	.
*	*	*	*	*	*	*Xlig	*	*	*	*	*
=5-	=5-	=5-	=5-	=5-	=5-	=5-	=5-	=5-	=5-	=5-	=5-
1A\	.	.	1D/	-ia	.	1F/	.	.	3d\	.	.
.	.	.	.	.	.	.	.	.	3e\	.	.
!	!	!	!	!	!	!	!	!	!LO:TX:t=P:problem=kreska pseudotaktowa	!	!
.	.	.	.	.	.	.	.	.	3f\	.	.
*	*	*	*	*	*	*	*	*	*Xcol	*	*
1B\	.	.	2rF	.	.	1G/	.	.	2e\	al-	.
!	!	!	!	!	!	!	!	!	!LO:TX:t=P::problem=kreska pseudotaktowa&colon;między nutą a kropką	!	!
.	.	.	1E/	Al-	.	.	.	.	2.g\	.	.
=6-	=6-	=6-	=6-	=6-	=6-	=6-	=6-	=6-	=6-	=6-	=6-
*	*	*	*	*	*	*custos:F	*	*	*	*	*
2.c\	.	.	.	.	.	1E/	.	.	.	.	.
.	.	.	.	.	.	.	.	.	4f\	.	.
.	.	.	2C/	.	.	.	.	.	4e\	.	.
!	!	!	!	!	!	!	!	!	!LO:TX:t=P:problem=kreska pseudotaktowa	!	!
4B\	.	.	.	.	.	.	.	.	4d\	.	.
!	!	!	!	!	!	!LO:LB:g=original	!	!	!	!	!
4A\	.	.	2.F/	-le-	.	2F/	.	.	2c/	.	.
4G\	.	.	.	.	.	.	.	.	.	.	.
!	!	!	!	!	!	!	!	!	!LO:TX:t=P::problem=kreska pseudotaktowa&colon;na nucie	!	!
4F\	.	.	.	.	.	2D/	.	.	1f\	.	.
4E\	.	.	4G/	.	.	.	.	.	.	.	.
=7-	=7-	=7-	=7-	=7-	=7-	=7-	=7-	=7-	=7-	=7-	=7-
2D/	.	.	4A\	.	.	2F/	.	.	.	.	.
.	.	.	4B\	.	.	.	.	.	.	.	.
2C/	.	.	1c\	.	.	2G/	.	.	4e\	.	.
!	!	!	!	!	!	!	!	!	!LO:TX:t=P:problem=kreska pseudotaktowa	!	!
.	.	.	.	.	.	.	.	.	4d\	.	.
2.F\	.	.	.	.	.	2.A/	.	.	4c\	.	.
.	.	.	.	.	.	.	.	.	4B\	.	.
.	.	.	2c\	.	.	.	.	.	1A/	.	.
4E\	.	.	.	.	.	4G/	.	.	.	.	.
=8-	=8-	=8-	=8-	=8-	=8-	=8-	=8-	=8-	=8-	=8-	=8-
2D/	.	.	2d\	.	.	2F/	.	.	.	.	.
2C/	.	.	1e\	.	.	2E/	.	.	1c\	-le-	.
1F\	.	.	.	.	.	1D/	.	.	.	.	.
.	.	.	2d\	.	.	.	.	.	2B/	.	.
=9-	=9-	=9-	=9-	=9-	=9-	=9-	=9-	=9-	=9-	=9-	=9-
1E\	.	.	1e\	.	.	2.C/	.	.	4c\	.	.
.	.	.	.	.	.	.	.	.	4d\	.	.
.	.	.	.	.	.	.	.	.	4e\	.	.
.	.	.	.	.	.	4D/	.	.	4f\	.	.
!	!	!	!	!	!	!	!	!	!LO:LB:g=original	!	!
2C/	.	.	2e\	-lu-	.	2E/	.	.	2g\	.	.
2D/	.	.	2.A/	.	.	2.F/	.	.	4f\	.	.
.	.	.	.	.	.	.	.	.	4e\	.	.
=10-	=10-	=10-	=10-	=10-	=10-	=10-	=10-	=10-	=10-	=10-	=10-
!LO:LB:g=original	!	!	!	!	!	!	!	!	!	!	!
2D/	.	.	.	.	.	.	.	.	2d\	.	.
.	.	.	4B\	.	.	4G/	.	.	.	.	.
2.AA/	.	.	1c\	.	.	2.A/	.	.	2c/	.	.
.	.	.	.	.	.	.	.	.	2f\	.	.
4BB/	.	.	.	.	.	4G/	.	.	.	.	.
2C/	.	.	2c\	.	.	2G/	.	.	1e\	-lu-	.
=11-	=11-	=11-	=11-	=11-	=11-	=11-	=11-	=11-	=11-	=11-	=11-
*	*	*	*lig	*	*	*	*	*	*	*	*
1D\	.	.	1A\	.	.	1F/	.	.	.	.	.
.	.	.	.	.	.	.	.	.	2d\	.	.
2C/	.	.	1.c\	.	.	[1E/;;l	.	.	[1e\;;l	-ia	.
2AA/	.	.	.	.	.	.	.	.	.	.	.
*	*	*	*Xlig	*	*	*	*	*	*	*	*
=12-	=12-	=12-	=12-	=12-	=12-	=12-	=12-	=12-	=12-	=12-	=12-
0E\;<	.	.	.	.	.	0E]	.	.	0e]	.	.
.	.	.	2B\	.	.	.	.	.	.	.	.
!	!	!	!LO:N:vis=0	!	!	!	!	!	!	!	!
.	.	.	1B\;;	-ia	.	.	.	.	.	.	.
=13||	=13||	=13||	=13||	=13||	=13||	=13||	=13||	=13||	=13||	=13||	=13||
*M2/1	*	*	*M2/1	*	*	*M2/1	*	*	*M2/1	*	*
*met(c|)	*	*	*met(c|)	*	*	*met(c|)	*	*	*met(c|)	*	*
!	!	!	!LO:LB:g=original	!	!	!	!	!	!	!	!
1F\	Pro-	Post	0rA	.	.	0r	.	.	1c\	Pro-	Post
*	*	*	*	*	*	*	*	*	*lig	*	*
2E\	-phe-	par-	.	.	.	.	.	.	1c\	-phe-	par-
2C/	.	.	.	.	.	.	.	.	.	.	.
=14-	=14-	=14-	=14-	=14-	=14-	=14-	=14-	=14-	=14-	=14-	=14-
2D/	.	.	2.F/	Pro-	Post	1r	.	.	1A/	.	.
*lig	*	*	*	*	*	*	*	*	*	*	*
1F\	.	-t(um)	.	.	.	.	.	.	.	.	.
.	.	.	4G\	.	.	.	.	.	.	.	.
*	*	*	*	*	*	*	*	*	*	*	*
*	*	*	*	*	*	*	*	*	*Xlig	*	*
*	*	*	*	*	*	*	*	*	*lig	*	*
.	.	.	4A\	.	.	1F/	Pro-	Poſt	1c\	-tae	-t(um)
.	.	.	4B\	.	.	.	.	.	.	.	.
1.FF/	.	.	2c\	.	.	.	.	.	.	.	.
*Xlig	*	*	*	*	*	*	*	*	*	*	*
=15-	=15-	=15-	=15-	=15-	=15-	=15-	=15-	=15-	=15-	=15-	=15-
*	*	*	*	*	*	*lig	*	*	*	*	*
.	.	.	2d\	.	.	1F/	-phe-	par-	1A/	.	.
.	.	.	1c\	-phe-	.	.	.	.	.	.	.
*lig	*	*	*	*	*	*	*	*	*Xlig	*	*
1GG/	-tae	Vir-	.	.	.	1D/	.	.	1G/	San-	Vir-
.	.	.	2B\	.	par-	.	.	.	.	.	.
*	*	*	*	*	*	*Xlig	*	*	*	*	*
=16-	=16-	=16-	=16-	=16-	=16-	=16-	=16-	=16-	=16-	=16-	=16-
*	*	*	*	*	*	*lig	*	*	*	*	*
1FF/	.	.	1c\	-tae	.	1F/	.	-t(um)	1A/	.	.
*Xlig	*	*	*	*	*	*	*	*	*	*	*
*lig	*	*	*	*	*	*	*	*	*	*	*
1GG/	San-	.	2B\	San-	.	1D/	.	.	1B/	-cti	-go
.	.	.	1G/	.	.	.	.	.	.	.	.
*	*	*	*	*	*	*Xlig	*	*	*	*	*
=17-	=17-	=17-	=17-	=17-	=17-	=17-	=17-	=17-	=17-	=17-	=17-
1AA/	.	.	.	.	.	1C/	-tae	.	1r	.	.
.	.	.	2F/	.	.	.	.	.	.	.	.
*Xlig	*	*	*	*	*	*	*	*	*	*	*
1GG/	-cti	-go	1G/	-cti	-tum	1D/	San-	Vir-	1B/	prae-	in-
=18-	=18-	=18-	=18-	=18-	=18-	=18-	=18-	=18-	=18-	=18-	=18-
!	!	!	!	!	!	!LO:PB:g=original	!	!	!	!	!
1C/	.	Vir-	2rF	.	.	1E/	-cti	-go	1G/	-di-	-vi-
.	.	.	2.G/	prae-	Vir-	.	.	.	.	.	.
2BB/	.	.	.	.	.	0r	.	.	1B/	-ca-	-o-
.	.	.	4A\	.	.	.	.	.	.	.	.
2.GG/	.	.	2.B\	-di-	.	.	.	.	.	.	.
=19-	=19-	=19-	=19-	=19-	=19-	=19-	=19-	=19-	=19-	=19-	=19-
.	.	.	.	.	.	.	.	.	1d\	-ve-	-la-
4AA/	.	.	4c\	.	.	.	.	.	.	.	.
2BB/	.	-go	2d\	.	.	.	.	.	.	.	.
1AA/	.	.	2c\	-ca-	-go	1E/	prae-	in-	0e\	.	.
.	.	.	2.A/	-ve-	.	.	.	.	.	.	.
=20-	=20-	=20-	=20-	=20-	=20-	=20-	=20-	=20-	=20-	=20-	=20-
2rGG	.	.	.	.	.	1C/	-di-	-vi-	.	.	.
.	.	.	4B\	.	.	.	.	.	.	.	.
2AA/	prae-	in-	2.c\	.	Vir-	.	.	.	.	.	.
*	*	*	*	*	*	*	*	*	*lig	*	*
2.C/	-di-	-Vi-	.	.	.	1E/	-ca-	-o-	1c\	.	.
.	.	.	4d\	.	.	.	.	.	.	.	.
.	.	.	2e\	.	.	.	.	.	.	.	.
4BB/	.	.	.	.	.	.	.	.	.	.	.
=21-	=21-	=21-	=21-	=21-	=21-	=21-	=21-	=21-	=21-	=21-	=21-
!LO:LB:g=original	!	!	!LO:TX:a:t=3	!	!	!	!	!	!	!	!
1.GG/	-ca-	-o-	0.d\	-runt	-go	0G/	-ve-	-la-	1d\	.	.
*	*	*	*	*	*	*	*	*	*Xlig	*	*
*	*	*	*	*	*	*	*	*	*lig	*	*
.	.	.	.	.	.	.	.	.	1B/	.	.
2GG/	-ve-	-la-	.	.	.	.	.	.	.	.	.
=22-	=22-	=22-	=22-	=22-	=22-	=22-	=22-	=22-	=22-	=22-	=22-
1D\	-runt	-ta	.	.	.	1A\	.	.	1A/	.	.
*	*	*	*lig	*	*	*	*	*	*Xlig	*	*
*	*	*	*	*	*	*	*	*	*lig	*	*
!	!	!	!	!	!	!	!	!	!LO:LB:g=original	!	!
1rD	.	.	1A\	na-	in	0F/	.	.	1c\	.	.
=23-	=23-	=23-	=23-	=23-	=23-	=23-	=23-	=23-	=23-	=23-	=23-
*	*ij	*	*col	*	*	*	*	*	*	*	*
1D\	prae-	per	2.d\	.	.	.	.	.	1A/	.	.
*	*	*	*Xlig	*	*	*	*	*	*Xlig	*	*
.	.	.	4c\	.	vi-	.	.	.	.	.	.
*	*	*	*Xcol	*	*	*	*	*	*	*	*
!	!	!	!LO:LB:g=original	!	!	!	!	!	!LO:TX:a:t=2	!	!
1.GG/	-di-	man-	2.B\	.	-o-	1G/	.	.	0G/	-runt	-ta
.	.	.	4A\	.	.	.	.	.	.	.	.
=24-	=24-	=24-	=24-	=24-	=24-	=24-	=24-	=24-	=24-	=24-	=24-
*	*	*	*	*	*	*lig	*	*	*	*	*
.	.	.	4G/	.	.	1E/	.	.	.	.	.
.	.	.	4F/	.	.	.	.	.	.	.	.
1C/	-ca-	.	2E/	.	.	.	.	.	.	.	.
.	.	.	2F/	.	.	1D/	.	.	2A/	na-	per-
2BB/	.	.	2G/	.	.	.	.	.	2B/	.	.
*	*	*	*	*	*	*Xlig	*	*	*	*	*
=25-	=25-	=25-	=25-	=25-	=25-	=25-	=25-	=25-	=25-	=25-	=25-
2AA/	.	.	1A\	.	.	0F/	.	.	2c/	.	.
2GG/	.	.	.	.	.	.	.	.	1d\	.	.
1FF/	.	.	2A/	sci	-la-	.	.	.	.	.	.
.	.	.	1A\	Sal-	-ta	.	.	.	1c\	.	.
=26-	=26-	=26-	=26-	=26-	=26-	=26-	=26-	=26-	=26-	=26-	=26-
*	*	*	*	*	*	*lig	*	*	*	*	*
1GG/	.	.	.	.	.	1D/	-runt	ta	.	.	.
.	.	.	1G/	-ua-	.	.	.	.	2B/	.	.
1AA/	-ve-	.	.	.	.	1C/	.	.	1c\	-sci	-man-
.	.	.	2F/	-to-	.	.	.	.	.	.	.
*	*	*	*	*	*	*Xlig	*	*	*	*	*
=27-	=27-	=27-	=27-	=27-	=27-	=27-	=27-	=27-	=27-	=27-	=27-
2GG/	-runt	.	1G/	-rem	.	2D/	.	per-	2.B/	sal-	.
*	*Xij	*	*	*	*	*	*	*	*	*	*
2G\	na-	.	.	.	.	2E/	.	.	.	.	.
.	.	.	.	.	.	.	.	.	4c\	.	.
2F\	.	-si-	2r	.	.	2F/	.	.	2d\	-ua-	.
2E\	.	.	2B\	Sal-	per-	1G/	na-	.	1e\	.	.
=28-	=28-	=28-	=28-	=28-	=28-	=28-	=28-	=28-	=28-	=28-	=28-
2C/	.	.	2c\	.	-man-	.	.	.	.	.	.
*	*	*	*lig	*	*	*	*	*	*	*	*
2D/	.	-sti	1A\	-ua-	.	1F/	.	.	2d\	.	.
1AA/	-sci	.	.	.	.	.	.	.	1c\	.	-si-
.	.	.	1c\	.	.	2E/	.	.	.	.	.
*	*	*	*Xlig	*	*	*	*	*	*	*	*
=29-	=29-	=29-	=29-	=29-	=29-	=29-	=29-	=29-	=29-	=29-	=29-
1rD	.	.	.	.	.	1F/	-ſci	-man-	1A/	-to-	-sti
.	.	.	4B\	.	.	.	.	.	.	.	.
.	.	.	4A\	.	.	.	.	.	.	.	.
2r	.	.	1G/	.	.	2.E/	Sal-	.	1B/	-rem	.
2E\	Sal-	De-	.	.	.	.	.	.	.	.	.
.	.	.	.	.	.	4F/	.	.	.	.	.
=30-	=30-	=30-	=30-	=30-	=30-	=30-	=30-	=30-	=30-	=30-	=30-
2C/	-ua-	.	2.c\	-to-	.	2G/	.	.	1rc	.	.
2AA/	-to-	-i	.	.	.	1A\	-ua-	.	.	.	.
.	.	.	4d\	.	.	.	.	.	.	.	.
*lig	*	*	*	*	*	*	*	*	*	*	*
1E\	-r(em)	ge-	1e\	.	.	.	.	.	1B/	de	De-
.	.	.	.	.	.	2G/	-to-	.	.	.	.
=31-	=31-	=31-	=31-	=31-	=31-	=31-	=31-	=31-	=31-	=31-	=31-
1D\	.	.	2.A/	.	-si-	1F/	.	-si-	1d\	Vir-	-i
.	.	.	4B\	.	.	.	.	.	.	.	.
*Xlig	*	*	*	*	*	*	*	*	*	*	*
2C/	de	.	4c\	.	.	1E/	-rem	-ſti	1e\	-gi-	.
.	.	.	4d\	.	.	.	.	.	.	.	.
2.AA/	Vir-	.	1e\	.	.	.	.	.	.	.	.
=32-	=32-	=32-	=32-	=32-	=32-	=32-	=32-	=32-	=32-	=32-	=32-
*	*	*	*	*	*	*	*	*	*lig	*	*
.	.	.	.	.	.	1rF	.	.	1e\	-ne	ge-
4BB/	.	.	.	.	.	.	.	.	.	.	.
4C/	.	.	4d\	.	.	.	.	.	.	.	.
4D/	.	.	4c\	.	.	.	.	.	.	.	.
*	*	*	*	*	*	*	*	*	*col	*	*
!LO:LB:g=original	!	!	!	!	!	!	!	!	!	!	!
2.E\	.	.	1B\	-rem	-ſti	1E/	de	De-	2.g\	.	.
*	*	*	*	*	*	*	*	*	*Xlig	*	*
4D\	.	.	.	.	.	.	.	.	4f\	.	.
*	*	*	*	*	*	*	*	*	*Xcol	*	*
=33-	=33-	=33-	=33-	=33-	=33-	=33-	=33-	=33-	=33-	=33-	=33-
!	!	!	!	!	!	!LO:LB:g=original	!	!	!	!	!
2C/	.	.	2r	.	.	1G/	Vir-	-i	2e\	.	.
*	*	*	*custos:c	*	*	*	*	*	*	*	*
2BB/	-gi-	-ni-	2B/	de	De-	.	.	.	2d\	.	.
!	!	!	!LO:PB:g=original	!	!	!	!	!	!	!	!
1AA/	-ne	-trix	2.c\	Vir-	.	1A\	-gi-	ge-	1.c\	.	.
.	.	.	4B\	.	.	.	.	.	.	.	.
=34-	=34-	=34-	=34-	=34-	=34-	=34-	=34-	=34-	=34-	=34-	=34-
*	*	*	*	*	*	*lig	*	*	*	*	*
2rBB	.	.	4A\	.	.	1A\	.	.	.	.	.
.	.	.	4G\	.	.	.	.	.	.	.	.
*	*	*	*	*	*	*	*	*	*custos:e	*	*
2D/	de	De-	2F/	.	.	.	.	.	2d\	.	-ni-
*	*	*	*	*	*	*col	*	*	*	*	*
!	!	!	!	!	!	!	!	!	!LO:LB:g=original	!	!
2C/	.	-i	2E/	-gi-	.	2.c\	.	.	2.e\	.	-trix
4AA/	Vir-	.	4C/	-ne	.	.	.	.	.	.	.
*	*	*	*	*	*	*Xlig	*	*	*	*	*
4BB/	.	.	4D/	.	.	4B\	.	.	4d\	.	.
*	*	*	*	*	*	*Xcol	*	*	*	*	*
=35-	=35-	=35-	=35-	=35-	=35-	=35-	=35-	=35-	=35-	=35-	=35-
4C/	.	ge-	4E/	.	.	2A/	.	.	2c/	.	Vir-
4D/	.	.	4F/	.	.	.	.	.	.	.	.
2E\	.	.	2G/	.	.	2G/	.	.	2B/	.	.
2F\	.	.	2A/	.	.	2F/	.	.	2A/	.	.
2E\	.	.	2G/	.	.	2G/	.	.	2B/	.	.
=36-	=36-	=36-	=36-	=36-	=36-	=36-	=36-	=36-	=36-	=36-	=36-
2AA/	.	.	2C/	.	-i	2.A/	.	.	1c\	.	.
1A\	.	.	2c\	.	ge-	.	.	.	.	.	.
.	.	.	.	.	.	4G/	.	.	.	.	.
.	.	.	2d\	.	.	2F/	.	.	1B/	.	.
2G\	.	.	2e\	.	.	1E/	.	ni-	.	.	.
=37-	=37-	=37-	=37-	=37-	=37-	=37-	=37-	=37-	=37-	=37-	=37-
!	!	!	!LO:TX:t=P:problem=takty 37-40 watpliwe harmonicznie	!	!	!	!	!	!	!	!
1F\	-gi-	-ni-	2c\	.	.	.	.	.	2d\	de	go
.	.	.	2d\	.	.	2D/	.	-trix	2e\	.	Vir-
1E\	-ne	-trix	2B\	.	.	1E/	.	.	2c/	.	.
.	.	.	1e\	.	.	.	.	.	2d\	.	.
=38-	=38-	=38-	=38-	=38-	=38-	=38-	=38-	=38-	=38-	=38-	=38-
00rA	.	.	.	.	.	1F/	.	Vir-	2B/	.	.
.	.	.	2d\	.	ni-	.	.	.	1e\	.	.
.	.	.	2e\	.	-trix	2E/	.	-go	.	.	.
.	.	.	2d\	.	.	1F/	.	.	2d\	.	.
=39-	=39-	=39-	=39-	=39-	=39-	=39-	=39-	=39-	=39-	=39-	=39-
.	.	.	2c\	.	ge-	.	.	.	2e\	.	go
.	.	.	2B\	.	.	2D/	.	Vir-	2d\	.	.
.	.	.	2A/	.	-ni-	2F/	.	.	2c/	.	in-
.	.	.	2G/	.	-trix	2G/	.	.	2B/	.	-ter-
=40-	=40-	=40-	=40-	=40-	=40-	=40-	=40-	=40-	=40-	=40-	=40-
*lig	*	*	*	*	*	*	*	*	*	*	*
!LO:SIC:l:v:s=Vir- t=verse 1	!	!	!	!	!	!	!	!	!	!	!
1AA/	Virg-	in-	4F/	.	.	1A\	.	.	2.c/	.	-ce-
.	.	.	4E/	.	.	.	.	.	.	.	.
.	.	.	2.e\	.	Vir-	.	.	.	.	.	.
.	.	.	.	.	.	.	.	.	4d\	.	.
*col	*	*	*	*	*	*	*	*	*	*	*
2.C/	.	-ter-	.	.	.	2G/	.	.	4e\	.	.
.	.	.	4d\	.	.	.	.	.	4f\	.	.
.	.	.	1c\	.	.	2E/	.	.	2g\	.	.
*Xlig	*	*	*	*	*	*	*	*	*	*	*
4BB/	.	.	.	.	.	.	.	.	.	.	.
*Xcol	*	*	*	*	*	*	*	*	*	*	*
=41-	=41-	=41-	=41-	=41-	=41-	=41-	=41-	=41-	=41-	=41-	=41-
*	*	*	*	*	*	*	*	*	*lig	*	*
2AA/	.	.	.	.	.	1F/	-[ne]	-go	1d\	Vir-	.
2FF/	-gi-	.	4B\	.	.	.	.	.	.	.	.
.	.	.	4A\	.	.	.	.	.	.	.	.
*	*	*	*	*	*	*	*	*	*col	*	*
0C/	-ne	-ce-	2G/	.	.	1E/	Ma-	in-	2.e\	.	.
.	.	.	1A\	.	-go	.	.	.	.	.	.
*	*	*	*	*	*	*	*	*	*Xlig	*	*
.	.	.	.	.	.	.	.	.	4d\	.	.
*	*	*	*	*	*	*	*	*	*Xcol	*	*
=42-	=42-	=42-	=42-	=42-	=42-	=42-	=42-	=42-	=42-	=42-	=42-
*	*	*	*	*	*	*lig	*	*	*	*	*
.	.	.	.	.	.	1E/	-tre	-ter-	2c/	.	.
!	!	!	!LO:LB:g=original	!	!	!	!	!	!	!	!
.	.	.	2G/	.	in-	.	.	.	2B/	-gi-	-de
*lig	*	*	*	*	*	*	*	*	*	*	*
1FF/	ma-	-de	1A\	.	-ter-	1F/	.	.	1A/	-ne	.
*	*	*	*	*	*	*Xlig	*	*	*	*	*
=43-	=43-	=43-	=43-	=43-	=43-	=43-	=43-	=43-	=43-	=43-	=43-
1GG/	.	.	1B\	.	-ce-	1D/	.	.	1rc	.	.
*Xlig	*	*	*	*	*	*	*	*	*	*	*
1G\	.	in-	1c\	.	.	1C/	.	-ce-	1e\	Ma-	pro
=44-	=44-	=44-	=44-	=44-	=44-	=44-	=44-	=44-	=44-	=44-	=44-
*	*	*	*	*	*	*	*	*	*lig	*	*
!	!	!	!	!	!	!	!	!	!LO:LB:g=original	!	!
2F\	-tre	-ter-	2A/	.	.	0D/	.	.	1f\	.	no-
2.D\	.	.	1d\	Ma-	.	.	.	.	.	.	.
.	.	.	.	.	.	.	.	.	1d\	.	.
4E\	.	-ce-	.	.	.	.	.	.	.	.	.
4F\	.	.	4c\	.	.	.	.	.	.	.	.
4G\	.	.	4B\	.	.	.	.	.	.	.	.
*	*	*	*	*	*	*	*	*	*Xlig	*	*
=45-	=45-	=45-	=45-	=45-	=45-	=45-	=45-	=45-	=45-	=45-	=45-
!LO:LB:g=original	!	!	!	!	!	!	!	!	!	!	!
2.A\	San-	.	1A\	-tre	-de	1F/	.	-de	1c\	-tre	.
4G\	.	.	.	.	.	.	.	.	.	.	.
*	*	*	*	*	*	*	*	*	*lig	*	*
!	!	!	!	!	!	!LO:LB:g=original	!	!	!	!	!
4F\	.	.	2rF	.	.	2D/	San-	.	1d\	San-	.
4E\	.	.	.	.	.	.	.	.	.	.	.
*lig	*	*	*	*	*	*	*	*	*	*	*
1D\	-cta	.	1A\	San-	in-	2.F/	.	.	.	.	.
=46-	=46-	=46-	=46-	=46-	=46-	=46-	=46-	=46-	=46-	=46-	=46-
.	.	.	.	.	.	.	.	.	1f\	.	.
.	.	.	.	.	.	4E/	.	.	.	.	.
*col	*	*	*	*	*	*	*	*	*	*	*
2.F\	.	.	[2A/	-cta	-ter-	4D/	.	pro	.	.	.
.	.	.	.	.	.	4C/	.	.	.	.	.
*Xlig	*	*	*	*	*	*	*	*	*	*	*
*	*	*	*	*	*	*	*	*	*Xlig	*	*
*	*	*	*	*	*	*	*	*	*lig	*	*
.	.	.	2A/]	.	.	1D/	.	.	1f\	-cta	.
4E\	.	.	.	.	.	.	.	.	.	.	.
*Xcol	*	*	*	*	*	*	*	*	*	*	*
4D/	.	.	2B\	.	-ce-	.	.	.	.	.	.
8C/L	.	.	.	.	.	.	.	.	.	.	.
8D/J	.	.	.	.	.	.	.	.	.	.	.
=47-	=47-	=47-	=47-	=47-	=47-	=47-	=47-	=47-	=47-	=47-	=47-
2E\	Ma-	.	1c\	.	.	2C/	-cta	.	1e\	.	.
2AA/	-ri-	-de	.	.	.	2.c\	Ma-	no-	.	.	.
*	*	*	*	*	*	*	*	*	*Xlig	*	*
*	*	*	*	*	*	*	*	*	*lig	*	*
1A\	-a	pro	0F/	Ma-	-de	.	.	.	1c\	.	.
.	.	.	.	.	.	4B\	.	.	.	.	.
.	.	.	.	.	.	4A\	.	.	.	.	.
.	.	.	.	.	.	4G\	.	.	.	.	.
=48-	=48-	=48-	=48-	=48-	=48-	=48-	=48-	=48-	=48-	=48-	=48-
1D\	.	.	.	.	.	1A\	.	.	1d\	.	.
*	*	*	*	*	*	*	*	*	*Xlig	*	*
2G\	Ma-	no-	4G\	-ri-	pro	1G/	.	.	2.d\	Ma-	.
.	.	.	4A\	.	.	.	.	.	.	.	.
4F\	.	.	4B\	.	.	.	.	.	.	.	.
4E\	.	.	4c\	.	.	.	.	.	4e\	.	.
=49-	=49-	=49-	=49-	=49-	=49-	=49-	=49-	=49-	=49-	=49-	=49-
2D\	.	.	2d\	.	.	2A\	.	-bis	2f\	.	.
2C/	.	.	2e\	.	.	2.c\	.	.	1e\	.	.
1F\	.	.	2c\	.	.	.	.	.	.	.	.
.	.	.	.	.	.	4B\	.	.	.	.	.
.	.	.	2d\	-a	no-	1A\	.	pro	2d\	.	.
=50-	=50-	=50-	=50-	=50-	=50-	=50-	=50-	=50-	=50-	=50-	=50-
!	!	!	!	!	!	!	!	!	!LO:TX:a:t=4	!	!
1E\	.	.	1B\	.	.	.	.	.	00e\	-ri-	.
.	.	.	.	.	.	2G/	.	.	.	.	.
*lig	*	*	*	*	*	*	*	*	*	*	*
1AA/	-ri-	bis	2.A/	Ma-	.	2.A/	.	.	.	.	.
.	.	.	4B\	.	.	4G/	.	.	.	.	.
=51-	=51-	=51-	=51-	=51-	=51-	=51-	=51-	=51-	=51-	=51-	=51-
00E\;	-a	.	1c\	-ri-	.	2E/	.	no-	.	.	.
.	.	.	.	.	.	2A/	-ri-	.	.	.	.
.	.	.	[1B\;;l	-a	-bis	[1G/;;l	-a	-bis	.	.	.
*Xlig	*	*	*	*	*	*	*	*	*	*	*
=52-	=52-	=52-	=52-	=52-	=52-	=52-	=52-	=52-	=52-	=52-	=52-
.	.	.	0B]	.	.	0G]	.	.	0e\;;	-a	-bis
==	==	==	==	==	==	==	==	==	==	==	==
*-	*-	*-	*-	*-	*-	*-	*-	*-	*-	*-	*-
!!!RDF**kern: l = terminal long
!!!system-decoration: [(s1,s2,s3,s4)]
!!!EED: Andrzej Borzym
!!!EEV: 2021-03-28
!!!ENC: Berenika Jozajtis
!!!END: 2021-03-22
!!!YEC: Copyright 2022 Narodowy Instytut Fryderyka Chopina (https://polishscores.org)
!!!YEM: License CC-BY-4.0 (https://creativecommons.org/licenses/by/4.0)
